X:1
P: Marquis Of Huntly's Farewell
C: By William Marshall
C: Arr. T. Traub 6-14-95, rev. 8-29-99
C: Use long descent for 1st ending
R: Strathspey
M: 4/4
K: A
L: 1/8
A|"A"A,2 A,>C "E"C<EE>F|"A"A>B"E"c>B "A"A2 A<c|"A"A,2 A,>C C<EE>c|"Bm"B>c d/c/B/A/ "D"F2 F<A| "A"A,2 A,>C "E"C<EEF/G/|"A"A>B"E"c>B "A7"A2 A>c|
"D"d>cd>f "A"e<cc<a|"Bm"B/A/B/c/ d/c/B/A/ "D"F2-F || f|"D"f/e/d/c/ "A"a>c "E"b>c "A"a2|"D"f/e/d/c/ a>g "A"fedc|"Bm"Bf b/a/g/f/ b2|
"Bm"ff "E"a>gfe|"D"f/e/d/c/ "A"a>c"E"b>c "A"a2|"D"f/e/d/c/ a>g "A"f>edc|"D"d/e/f/g/ a>g fedc|"Bm"B>c d/c/B/A/ "D"F2 F<A |]
